Newaita-dark/apps/16/gnome-2048.svg

<svg height="16" viewBox="0 0 16 16" width="16" xmlns="http://www.w3.org/2000/svg" xmlns:xlink="http://www.w3.org/1999/xlink"><linearGradient id="a" gradientUnits="userSpaceOnUse" x1="7.93826" x2="7.93826" y1="13.7352095" y2="14.39673150002"><stop offset="0" stop-opacity=".27451"/><stop offset="1" stop-opacity="0"/></linearGradient><linearGradient id="b"><stop offset="0" stop-opacity=".313726"/><stop offset=".222222" stop-opacity=".27451"/><stop offset="1" stop-opacity="0"/></linearGradient><radialGradient id="c" cx="450.908936" cy="189.579361" gradientTransform="matrix(.00000009 -.0390662 -.0703192 -.00000005 25.734563 31.515908)" gradientUnits="userSpaceOnUse" r="21.166656" xlink:href="#b"/><radialGradient id="d" cx="450.908936" cy="189.579361" gradientTransform="matrix(-.00000009 .0390662 .0703192 .00000005 -9.858048 -4.045498)" gradientUnits="userSpaceOnUse" r="21.166656" xlink:href="#b"/><radialGradient id="e" cx="450.908936" cy="189.579361" gradientTransform="matrix(-.00000009 -.0390662 .0703192 -.00000005 -9.858048 31.515908)" gradientUnits="userSpaceOnUse" r="21.166656" xlink:href="#b"/><radialGradient id="f" cx="450.908936" cy="189.579361" gradientTransform="matrix(.00000009 .0390662 -.0703192 .00000005 25.734562 -4.045498)" gradientUnits="userSpaceOnUse" r="21.166656" xlink:href="#b"/><linearGradient id="g"><stop offset="0" stop-color="#e0e0e0"/><stop offset="1" stop-color="#eee"/></linearGradient><linearGradient id="h" gradientUnits="userSpaceOnUse" x1="3.969131" x2="3.969131" xlink:href="#g" y1="5.7479435625" y2="1.77881275002"/><linearGradient id="i" gradientUnits="userSpaceOnUse" x1="11.907393" x2="11.907393" y1="5.7479435625" y2="1.77881275002"><stop offset="0" stop-color="#9ccc65"/><stop offset="1" stop-color="#aed581"/></linearGradient><linearGradient id="j" gradientUnits="userSpaceOnUse" x1="3.969131" x2="3.969131" xlink:href="#g" y1="13.68620575002" y2="9.71707449999"/><linearGradient id="k" gradientUnits="userSpaceOnUse" x1="3.969131" x2="3.969131" xlink:href="#g" y1="9.71707549999" y2="5.7479445625"/><linearGradient id="l" gradientUnits="userSpaceOnUse" x1="11.907393" x2="11.907393" y1="13.68620575002" y2="9.71707449999"><stop offset="0" stop-color="#ff7043"/><stop offset="1" stop-color="#ff8a65"/></linearGradient><linearGradient id="m" gradientUnits="userSpaceOnUse" x1="11.907393" x2="11.907393" y1="9.71707549999" y2="5.7479445625"><stop offset="0" stop-color="#29b6f6"/><stop offset="1" stop-color="#4fc3f7"/></linearGradient><linearGradient id="n" gradientUnits="userSpaceOnUse" x1="7.938262" x2="7.938262" y1="9.71707549999" y2="5.7479445625"><stop offset="0" stop-color="#ffa726"/><stop offset="1" stop-color="#ffb74d"/></linearGradient><linearGradient id="o" gradientUnits="userSpaceOnUse" x1="7.938262" x2="7.938262" y1="13.68620675002" y2="9.71707549999"><stop offset="0" stop-color="#ef5350"/><stop offset="1" stop-color="#e57373"/></linearGradient><linearGradient id="p" gradientUnits="userSpaceOnUse" x1="7.938262" x2="7.938262" xlink:href="#g" y1="5.7479445625" y2="1.77881375002"/><path d="m3.308594 13.710938h9.261718v.710937h-9.261718zm0 0" fill="url(#a)"/><path d="m12.570312 13.734375h1.320313v-.660156h-1.320313zm0 0" fill="url(#c)"/><path d="m3.308594 13.734375h-1.324219v.664063h1.324219zm0 0" fill="url(#d)"/><path d="m3.308594 13.734375h-1.324219v-.660156h1.324219zm0 0" fill="url(#e)"/><path d="m12.570312 13.734375h1.320313v.664063h-1.320313zm0 0" fill="url(#f)"/><path d="m2.644531 1.777344c-.363281 0-.660156.296875-.660156.664062v3.304688h3.96875v-3.96875zm0 0" fill="url(#h)"/><path d="m9.921875 1.777344v3.96875h3.96875v-3.304688c0-.367187-.292969-.664062-.660156-.664062zm0 0" fill="url(#i)"/><path d="m1.984375 9.71875v3.304688c0 .367187.296875.664062.660156.664062h3.308594v-3.96875zm0 0" fill="url(#j)"/><path d="m1.984375 5.746094h3.96875v3.972656h-3.96875zm0 0" fill="url(#k)"/><path d="m9.921875 9.71875v3.96875h3.308594c.367187 0 .660156-.296875.660156-.664062v-3.304688zm0 0" fill="url(#l)"/><path d="m9.921875 5.746094h3.96875v3.972656h-3.96875zm0 0" fill="url(#m)"/><path d="m5.953125 5.746094h3.96875v3.972656h-3.96875zm0 0" fill="url(#n)"/><path d="m5.953125 9.71875h3.96875v3.96875h-3.96875zm0 0" fill="url(#o)"/><path d="m5.953125 1.777344h3.96875v3.96875h-3.96875zm0 0" fill="url(#p)"/><path d="m2.644531 1.777344c-.363281 0-.660156.296875-.660156.664062v.089844c0-.367188.296875-.664062.660156-.664062h10.585938c.367187 0 .660156.296874.660156.664062v-.089844c0-.367187-.292969-.664062-.660156-.664062zm0 0" fill="#fff" fill-opacity=".784314"/><path d="m2.644531 13.695312c-.363281 0-.660156-.296874-.660156-.664062v-.089844c0 .367188.296875.660156.660156.660156h10.585938c.367187 0 .660156-.292968.660156-.660156v.089844c0 .367188-.292969.664062-.660156.664062zm0 0" fill-opacity=".235294"/><g fill="#fff"><path d="m1.984375 5.746094v.167968h3.96875v-.167968zm0 0"/><path d="m2.644531 1.777344c-.363281 0-.660156.296875-.660156.664062v.164063c0-.367188.296875-.660157.660156-.660157h3.308594v-.167968zm0 0"/><path d="m9.921875 1.777344v.167968h3.308594c.367187 0 .660156.292969.660156.660157v-.164063c0-.367187-.292969-.664062-.660156-.664062zm0 0" fill-opacity=".588235"/><path d="m1.984375 9.71875v.164062h3.96875v-.164062zm0 0" fill-opacity=".980645"/><path d="m9.921875 9.71875v.164062h3.96875v-.164062zm0 0" fill-opacity=".392157"/><path d="m9.921875 5.746094v.167968h3.96875v-.167968zm0 0" fill-opacity=".392157"/><path d="m5.953125 5.746094v.167968h3.96875v-.167968zm0 0" fill-opacity=".784314"/><path d="m5.953125 9.71875v.164062h3.96875v-.164062zm0 0" fill-opacity=".392157"/><path d="m5.953125 1.777344v.167968h3.96875v-.167968zm0 0"/></g><path d="m1.984375 9.550781v.167969h3.96875v-.167969zm0 0" fill-opacity=".235294"/><path d="m1.984375 5.582031v.164063h3.96875v-.164063zm0 0" fill-opacity=".235294"/><path d="m9.921875 5.582031v.164063h3.96875v-.164063zm0 0" fill-opacity=".235294"/><path d="m1.984375 12.859375v.164063c0 .367187.296875.664062.660156.664062h3.308594v-.167969h-3.308594c-.363281 0-.660156-.292969-.660156-.660156zm0 0" fill-opacity=".235294"/><path d="m13.890625 12.859375c0 .367187-.292969.660156-.660156.660156h-3.308594v.167969h3.308594c.367187 0 .660156-.296875.660156-.664062zm0 0" fill-opacity=".235294"/><path d="m9.921875 9.550781v.167969h3.96875v-.167969zm0 0" fill-opacity=".235294"/><path d="m5.953125 9.550781v.167969h3.96875v-.167969zm0 0" fill-opacity=".235294"/><path d="m5.953125 13.519531v.167969h3.96875v-.167969zm0 0" fill-opacity=".235294"/><path d="m5.953125 5.582031v.164063h3.96875v-.164063zm0 0" fill-opacity=".235294"/><path d="m2.644531 1.730469c-.390625 0-.707031.316406-.707031.710937v10.582032c0 .394531.316406.710937.707031.710937h10.585938c.390625 0 .707031-.316406.707031-.710937v-10.582032c0-.394531-.316406-.710937-.707031-.710937zm3.355469.09375h3.875v3.875h-3.875zm-3.355469 0h3.261719v3.875h-3.875v-3.257813c0-.34375.273438-.617187.613281-.617187zm7.324219 0h3.261719c.339843 0 .613281.273437.613281.617187v3.257813h-3.875zm-3.96875 3.96875h3.875v3.878906h-3.875zm-3.96875 0h3.875v3.878906h-3.875zm7.9375 0h3.875v3.878906h-3.875zm-3.96875 3.972656h3.875v3.875h-3.875zm3.96875 0h3.875v3.257813c0 .34375-.273438.617187-.613281.617187h-3.261719zm-7.9375 0h3.875v3.875h-3.261719c-.339843 0-.613281-.273437-.613281-.617187zm0 0" fill="#212121"/></svg>

<?xml version="1.0" encoding="UTF-8"?>
<svg xmlns="http://www.w3.org/2000/svg" xmlns:xlink="http://www.w3.org/1999/xlink" width="16px" height="16px" viewBox="0 0 16 16" version="1.1">
<defs>
<linearGradient id="linear0" gradientUnits="userSpaceOnUse" x1="254" y1="233.5" x2="254" y2="254.666672" gradientTransform="matrix(0.031253,0,0,0.031253,-0.00000190753,6.437634)">
<stop offset="0" style="stop-color:rgb(0%,0%,0%);stop-opacity:0.27451;"/>
<stop offset="1" style="stop-color:rgb(0%,0%,0%);stop-opacity:0;"/>
</linearGradient>
<radialGradient id="radial0" gradientUnits="userSpaceOnUse" cx="450.908936" cy="189.579361" fx="450.908936" fy="189.579361" r="21.166656" gradientTransform="matrix(0.0000000870852,-0.0390662,-0.0703192,-0.0000000507693,25.734563,31.515908)">
<stop offset="0" style="stop-color:rgb(0%,0%,0%);stop-opacity:0.313726;"/>
<stop offset="0.222222" style="stop-color:rgb(0%,0%,0%);stop-opacity:0.27451;"/>
<stop offset="1" style="stop-color:rgb(0%,0%,0%);stop-opacity:0;"/>
</radialGradient>
<radialGradient id="radial1" gradientUnits="userSpaceOnUse" cx="450.908936" cy="189.579361" fx="450.908936" fy="189.579361" r="21.166656" gradientTransform="matrix(-0.0000000870852,0.0390662,0.0703192,0.0000000507693,-9.858048,-4.045498)">
<stop offset="0" style="stop-color:rgb(0%,0%,0%);stop-opacity:0.313726;"/>
<stop offset="0.222222" style="stop-color:rgb(0%,0%,0%);stop-opacity:0.27451;"/>
<stop offset="1" style="stop-color:rgb(0%,0%,0%);stop-opacity:0;"/>
</radialGradient>
<radialGradient id="radial2" gradientUnits="userSpaceOnUse" cx="450.908936" cy="189.579361" fx="450.908936" fy="189.579361" r="21.166656" gradientTransform="matrix(-0.0000000870852,-0.0390662,0.0703192,-0.0000000507693,-9.858048,31.515908)">
<stop offset="0" style="stop-color:rgb(0%,0%,0%);stop-opacity:0.313726;"/>
<stop offset="0.222222" style="stop-color:rgb(0%,0%,0%);stop-opacity:0.27451;"/>
<stop offset="1" style="stop-color:rgb(0%,0%,0%);stop-opacity:0;"/>
</radialGradient>
<radialGradient id="radial3" gradientUnits="userSpaceOnUse" cx="450.908936" cy="189.579361" fx="450.908936" fy="189.579361" r="21.166656" gradientTransform="matrix(0.0000000870852,0.0390662,-0.0703192,0.0000000507693,25.734562,-4.045498)">
<stop offset="0" style="stop-color:rgb(0%,0%,0%);stop-opacity:0.313726;"/>
<stop offset="0.222222" style="stop-color:rgb(0%,0%,0%);stop-opacity:0.27451;"/>
<stop offset="1" style="stop-color:rgb(0%,0%,0%);stop-opacity:0;"/>
</radialGradient>
<linearGradient id="linear1" gradientUnits="userSpaceOnUse" x1="127" y1="-31.083334" x2="127" y2="-158.083328" gradientTransform="matrix(0.031253,0,0,0.031253,0,6.719391)">
<stop offset="0" style="stop-color:rgb(87.843138%,87.843138%,87.843138%);stop-opacity:1;"/>
<stop offset="1" style="stop-color:rgb(93.333334%,93.333334%,93.333334%);stop-opacity:1;"/>
</linearGradient>
<linearGradient id="linear2" gradientUnits="userSpaceOnUse" x1="381" y1="-31.083334" x2="381" y2="-158.083328" gradientTransform="matrix(0.031253,0,0,0.031253,0,6.719391)">
<stop offset="0" style="stop-color:rgb(61.176473%,80.000001%,39.607844%);stop-opacity:1;"/>
<stop offset="1" style="stop-color:rgb(68.235296%,83.529413%,50.588238%);stop-opacity:1;"/>
</linearGradient>
<linearGradient id="linear3" gradientUnits="userSpaceOnUse" x1="127" y1="222.916672" x2="127" y2="95.916664" gradientTransform="matrix(0.031253,0,0,0.031253,0,6.719391)">
<stop offset="0" style="stop-color:rgb(87.843138%,87.843138%,87.843138%);stop-opacity:1;"/>
<stop offset="1" style="stop-color:rgb(93.333334%,93.333334%,93.333334%);stop-opacity:1;"/>
</linearGradient>
<linearGradient id="linear4" gradientUnits="userSpaceOnUse" x1="127" y1="95.916664" x2="127" y2="-31.083334" gradientTransform="matrix(0.031253,0,0,0.031253,0,6.719392)">
<stop offset="0" style="stop-color:rgb(87.843138%,87.843138%,87.843138%);stop-opacity:1;"/>
<stop offset="1" style="stop-color:rgb(93.333334%,93.333334%,93.333334%);stop-opacity:1;"/>
</linearGradient>
<linearGradient id="linear5" gradientUnits="userSpaceOnUse" x1="381" y1="222.916672" x2="381" y2="95.916664" gradientTransform="matrix(0.031253,0,0,0.031253,0,6.719391)">
<stop offset="0" style="stop-color:rgb(100%,43.921569%,26.274511%);stop-opacity:1;"/>
<stop offset="1" style="stop-color:rgb(100%,54.11765%,39.607844%);stop-opacity:1;"/>
</linearGradient>
<linearGradient id="linear6" gradientUnits="userSpaceOnUse" x1="381" y1="95.916664" x2="381" y2="-31.083334" gradientTransform="matrix(0.031253,0,0,0.031253,0,6.719392)">
<stop offset="0" style="stop-color:rgb(16.078432%,71.372551%,96.470588%);stop-opacity:1;"/>
<stop offset="1" style="stop-color:rgb(30.980393%,76.47059%,96.862745%);stop-opacity:1;"/>
</linearGradient>
<linearGradient id="linear7" gradientUnits="userSpaceOnUse" x1="254" y1="95.916664" x2="254" y2="-31.083334" gradientTransform="matrix(0.031253,0,0,0.031253,0,6.719392)">
<stop offset="0" style="stop-color:rgb(100%,65.490198%,14.901961%);stop-opacity:1;"/>
<stop offset="1" style="stop-color:rgb(100%,71.764708%,30.19608%);stop-opacity:1;"/>
</linearGradient>
<linearGradient id="linear8" gradientUnits="userSpaceOnUse" x1="254" y1="222.916672" x2="254" y2="95.916664" gradientTransform="matrix(0.031253,0,0,0.031253,0,6.719392)">
<stop offset="0" style="stop-color:rgb(93.725491%,32.549021%,31.37255%);stop-opacity:1;"/>
<stop offset="1" style="stop-color:rgb(89.803922%,45.09804%,45.09804%);stop-opacity:1;"/>
</linearGradient>
<linearGradient id="linear9" gradientUnits="userSpaceOnUse" x1="254" y1="-31.083334" x2="254" y2="-158.083328" gradientTransform="matrix(0.031253,0,0,0.031253,0,6.719392)">
<stop offset="0" style="stop-color:rgb(87.843138%,87.843138%,87.843138%);stop-opacity:1;"/>
<stop offset="1" style="stop-color:rgb(93.333334%,93.333334%,93.333334%);stop-opacity:1;"/>
</linearGradient>
</defs>
<g id="surface1">
<path style=" stroke:none;fill-rule:nonzero;fill:url(#linear0);" d="M 3.308594 13.710938 L 12.570312 13.710938 L 12.570312 14.421875 L 3.308594 14.421875 Z M 3.308594 13.710938 "/>
<path style=" stroke:none;fill-rule:nonzero;fill:url(#radial0);" d="M 12.570312 13.734375 L 13.890625 13.734375 L 13.890625 13.074219 L 12.570312 13.074219 Z M 12.570312 13.734375 "/>
<path style=" stroke:none;fill-rule:nonzero;fill:url(#radial1);" d="M 3.308594 13.734375 L 1.984375 13.734375 L 1.984375 14.398438 L 3.308594 14.398438 Z M 3.308594 13.734375 "/>
<path style=" stroke:none;fill-rule:nonzero;fill:url(#radial2);" d="M 3.308594 13.734375 L 1.984375 13.734375 L 1.984375 13.074219 L 3.308594 13.074219 Z M 3.308594 13.734375 "/>
<path style=" stroke:none;fill-rule:nonzero;fill:url(#radial3);" d="M 12.570312 13.734375 L 13.890625 13.734375 L 13.890625 14.398438 L 12.570312 14.398438 Z M 12.570312 13.734375 "/>
<path style=" stroke:none;fill-rule:nonzero;fill:url(#linear1);" d="M 2.644531 1.777344 C 2.28125 1.777344 1.984375 2.074219 1.984375 2.441406 L 1.984375 5.746094 L 5.953125 5.746094 L 5.953125 1.777344 Z M 2.644531 1.777344 "/>
<path style=" stroke:none;fill-rule:nonzero;fill:url(#linear2);" d="M 9.921875 1.777344 L 9.921875 5.746094 L 13.890625 5.746094 L 13.890625 2.441406 C 13.890625 2.074219 13.597656 1.777344 13.230469 1.777344 Z M 9.921875 1.777344 "/>
<path style=" stroke:none;fill-rule:nonzero;fill:url(#linear3);" d="M 1.984375 9.71875 L 1.984375 13.023438 C 1.984375 13.390625 2.28125 13.6875 2.644531 13.6875 L 5.953125 13.6875 L 5.953125 9.71875 Z M 1.984375 9.71875 "/>
<path style=" stroke:none;fill-rule:nonzero;fill:url(#linear4);" d="M 1.984375 5.746094 L 5.953125 5.746094 L 5.953125 9.71875 L 1.984375 9.71875 Z M 1.984375 5.746094 "/>
<path style=" stroke:none;fill-rule:nonzero;fill:url(#linear5);" d="M 9.921875 9.71875 L 9.921875 13.6875 L 13.230469 13.6875 C 13.597656 13.6875 13.890625 13.390625 13.890625 13.023438 L 13.890625 9.71875 Z M 9.921875 9.71875 "/>
<path style=" stroke:none;fill-rule:nonzero;fill:url(#linear6);" d="M 9.921875 5.746094 L 13.890625 5.746094 L 13.890625 9.71875 L 9.921875 9.71875 Z M 9.921875 5.746094 "/>
<path style=" stroke:none;fill-rule:nonzero;fill:url(#linear7);" d="M 5.953125 5.746094 L 9.921875 5.746094 L 9.921875 9.71875 L 5.953125 9.71875 Z M 5.953125 5.746094 "/>
<path style=" stroke:none;fill-rule:nonzero;fill:url(#linear8);" d="M 5.953125 9.71875 L 9.921875 9.71875 L 9.921875 13.6875 L 5.953125 13.6875 Z M 5.953125 9.71875 "/>
<path style=" stroke:none;fill-rule:nonzero;fill:url(#linear9);" d="M 5.953125 1.777344 L 9.921875 1.777344 L 9.921875 5.746094 L 5.953125 5.746094 Z M 5.953125 1.777344 "/>
<path style=" stroke:none;fill-rule:nonzero;fill:rgb(100%,100%,100%);fill-opacity:0.784314;" d="M 2.644531 1.777344 C 2.28125 1.777344 1.984375 2.074219 1.984375 2.441406 L 1.984375 2.53125 C 1.984375 2.164062 2.28125 1.867188 2.644531 1.867188 L 13.230469 1.867188 C 13.597656 1.867188 13.890625 2.164062 13.890625 2.53125 L 13.890625 2.441406 C 13.890625 2.074219 13.597656 1.777344 13.230469 1.777344 Z M 2.644531 1.777344 "/>
<path style=" stroke:none;fill-rule:nonzero;fill:rgb(0%,0%,0%);fill-opacity:0.235294;" d="M 2.644531 13.695312 C 2.28125 13.695312 1.984375 13.398438 1.984375 13.03125 L 1.984375 12.941406 C 1.984375 13.308594 2.28125 13.601562 2.644531 13.601562 L 13.230469 13.601562 C 13.597656 13.601562 13.890625 13.308594 13.890625 12.941406 L 13.890625 13.03125 C 13.890625 13.398438 13.597656 13.695312 13.230469 13.695312 Z M 2.644531 13.695312 "/>
<path style=" stroke:none;fill-rule:nonzero;fill:rgb(100%,100%,100%);fill-opacity:1;" d="M 1.984375 5.746094 L 1.984375 5.914062 L 5.953125 5.914062 L 5.953125 5.746094 Z M 1.984375 5.746094 "/>
<path style=" stroke:none;fill-rule:nonzero;fill:rgb(100%,100%,100%);fill-opacity:1;" d="M 2.644531 1.777344 C 2.28125 1.777344 1.984375 2.074219 1.984375 2.441406 L 1.984375 2.605469 C 1.984375 2.238281 2.28125 1.945312 2.644531 1.945312 L 5.953125 1.945312 L 5.953125 1.777344 Z M 2.644531 1.777344 "/>
<path style=" stroke:none;fill-rule:nonzero;fill:rgb(100%,100%,100%);fill-opacity:0.588235;" d="M 9.921875 1.777344 L 9.921875 1.945312 L 13.230469 1.945312 C 13.597656 1.945312 13.890625 2.238281 13.890625 2.605469 L 13.890625 2.441406 C 13.890625 2.074219 13.597656 1.777344 13.230469 1.777344 Z M 9.921875 1.777344 "/>
<path style=" stroke:none;fill-rule:nonzero;fill:rgb(100%,100%,100%);fill-opacity:0.980645;" d="M 1.984375 9.71875 L 1.984375 9.882812 L 5.953125 9.882812 L 5.953125 9.71875 Z M 1.984375 9.71875 "/>
<path style=" stroke:none;fill-rule:nonzero;fill:rgb(100%,100%,100%);fill-opacity:0.392157;" d="M 9.921875 9.71875 L 9.921875 9.882812 L 13.890625 9.882812 L 13.890625 9.71875 Z M 9.921875 9.71875 "/>
<path style=" stroke:none;fill-rule:nonzero;fill:rgb(100%,100%,100%);fill-opacity:0.392157;" d="M 9.921875 5.746094 L 9.921875 5.914062 L 13.890625 5.914062 L 13.890625 5.746094 Z M 9.921875 5.746094 "/>
<path style=" stroke:none;fill-rule:nonzero;fill:rgb(100%,100%,100%);fill-opacity:0.784314;" d="M 5.953125 5.746094 L 5.953125 5.914062 L 9.921875 5.914062 L 9.921875 5.746094 Z M 5.953125 5.746094 "/>
<path style=" stroke:none;fill-rule:nonzero;fill:rgb(100%,100%,100%);fill-opacity:0.392157;" d="M 5.953125 9.71875 L 5.953125 9.882812 L 9.921875 9.882812 L 9.921875 9.71875 Z M 5.953125 9.71875 "/>
<path style=" stroke:none;fill-rule:nonzero;fill:rgb(100%,100%,100%);fill-opacity:1;" d="M 5.953125 1.777344 L 5.953125 1.945312 L 9.921875 1.945312 L 9.921875 1.777344 Z M 5.953125 1.777344 "/>
<path style=" stroke:none;fill-rule:nonzero;fill:rgb(0%,0%,0%);fill-opacity:0.235294;" d="M 1.984375 9.550781 L 1.984375 9.71875 L 5.953125 9.71875 L 5.953125 9.550781 Z M 1.984375 9.550781 "/>
<path style=" stroke:none;fill-rule:nonzero;fill:rgb(0%,0%,0%);fill-opacity:0.235294;" d="M 1.984375 5.582031 L 1.984375 5.746094 L 5.953125 5.746094 L 5.953125 5.582031 Z M 1.984375 5.582031 "/>
<path style=" stroke:none;fill-rule:nonzero;fill:rgb(0%,0%,0%);fill-opacity:0.235294;" d="M 9.921875 5.582031 L 9.921875 5.746094 L 13.890625 5.746094 L 13.890625 5.582031 Z M 9.921875 5.582031 "/>
<path style=" stroke:none;fill-rule:nonzero;fill:rgb(0%,0%,0%);fill-opacity:0.235294;" d="M 1.984375 12.859375 L 1.984375 13.023438 C 1.984375 13.390625 2.28125 13.6875 2.644531 13.6875 L 5.953125 13.6875 L 5.953125 13.519531 L 2.644531 13.519531 C 2.28125 13.519531 1.984375 13.226562 1.984375 12.859375 Z M 1.984375 12.859375 "/>
<path style=" stroke:none;fill-rule:nonzero;fill:rgb(0%,0%,0%);fill-opacity:0.235294;" d="M 13.890625 12.859375 C 13.890625 13.226562 13.597656 13.519531 13.230469 13.519531 L 9.921875 13.519531 L 9.921875 13.6875 L 13.230469 13.6875 C 13.597656 13.6875 13.890625 13.390625 13.890625 13.023438 Z M 13.890625 12.859375 "/>
<path style=" stroke:none;fill-rule:nonzero;fill:rgb(0%,0%,0%);fill-opacity:0.235294;" d="M 9.921875 9.550781 L 9.921875 9.71875 L 13.890625 9.71875 L 13.890625 9.550781 Z M 9.921875 9.550781 "/>
<path style=" stroke:none;fill-rule:nonzero;fill:rgb(0%,0%,0%);fill-opacity:0.235294;" d="M 5.953125 9.550781 L 5.953125 9.71875 L 9.921875 9.71875 L 9.921875 9.550781 Z M 5.953125 9.550781 "/>
<path style=" stroke:none;fill-rule:nonzero;fill:rgb(0%,0%,0%);fill-opacity:0.235294;" d="M 5.953125 13.519531 L 5.953125 13.6875 L 9.921875 13.6875 L 9.921875 13.519531 Z M 5.953125 13.519531 "/>
<path style=" stroke:none;fill-rule:nonzero;fill:rgb(0%,0%,0%);fill-opacity:0.235294;" d="M 5.953125 5.582031 L 5.953125 5.746094 L 9.921875 5.746094 L 9.921875 5.582031 Z M 5.953125 5.582031 "/>
<path style=" stroke:none;fill-rule:nonzero;fill:rgb(12.941177%,12.941177%,12.941177%);fill-opacity:1;" d="M 2.644531 1.730469 C 2.253906 1.730469 1.9375 2.046875 1.9375 2.441406 L 1.9375 13.023438 C 1.9375 13.417969 2.253906 13.734375 2.644531 13.734375 L 13.230469 13.734375 C 13.621094 13.734375 13.9375 13.417969 13.9375 13.023438 L 13.9375 2.441406 C 13.9375 2.046875 13.621094 1.730469 13.230469 1.730469 Z M 6 1.824219 L 9.875 1.824219 L 9.875 5.699219 L 6 5.699219 Z M 2.644531 1.824219 L 5.90625 1.824219 L 5.90625 5.699219 L 2.03125 5.699219 L 2.03125 2.441406 C 2.03125 2.097656 2.304688 1.824219 2.644531 1.824219 Z M 9.96875 1.824219 L 13.230469 1.824219 C 13.570312 1.824219 13.84375 2.097656 13.84375 2.441406 L 13.84375 5.699219 L 9.96875 5.699219 Z M 6 5.792969 L 9.875 5.792969 L 9.875 9.671875 L 6 9.671875 Z M 2.03125 5.792969 L 5.90625 5.792969 L 5.90625 9.671875 L 2.03125 9.671875 Z M 9.96875 5.792969 L 13.84375 5.792969 L 13.84375 9.671875 L 9.96875 9.671875 Z M 6 9.765625 L 9.875 9.765625 L 9.875 13.640625 L 6 13.640625 Z M 9.96875 9.765625 L 13.84375 9.765625 L 13.84375 13.023438 C 13.84375 13.367188 13.570312 13.640625 13.230469 13.640625 L 9.96875 13.640625 Z M 2.03125 9.765625 L 5.90625 9.765625 L 5.90625 13.640625 L 2.644531 13.640625 C 2.304688 13.640625 2.03125 13.367188 2.03125 13.023438 Z M 2.03125 9.765625 "/>
</g>
</svg>
